X: 79
T: No_172_Little_Plover.krn
%%abc-version 2.0
%%abcx-abcm2ps-target-version 5.9.1 (29 Sep 2008)
%%abc-creator hum2abc beta
%%abcx-conversion-date 2020/08/10 18:54:57
%%gracespace 0 6 6
%%humdrum-veritas 1964204625
%%humdrum-veritas-data 2437789726
%%linebreak <none>
%%barnumbers 0
L: 1/8
M: 2/4
%%staves {1 2}
V: 1 clef=bass
V: 2 clef=bass
K: A
[V:1] [K:clef=bass][M:2/4]E2E2 | 
[V:2] [K:clef=bass][M:2/4](3!accent!G,, z G,, (3!accent!G,, z G,, | 
[V:1] C2C2 | 
[V:2] z4 | 
[V:1] A,4 | 
[V:2] z4 | 
[V:1] A,2A,2 | 
[V:2] z4 | 
[V:1] A,4 ||  
[V:2] z4 ||  
[V:1] [M:3/4]A,3A,/A,/ F,/!fermata!E,3/ | 
[V:2] [M:3/4]z6 | 
[V:1] A,3A,/A,/A,2 | 
[V:2] z6 | 
[V:1] A,3A,/A,/ F,/!fermata!E,3/ | 
[V:2] z6 | 
[V:1] A,3A,/A,/A,2 |]  
[V:2] z6 |]  


